femas-admin/src/main/resources/static/icon/publish.svg

<svg xmlns="http://www.w3.org/2000/svg" width="16px" height="16px">
	<path d="M10.9995,5.0005 L15.0005,5.0005 L15.0005,0.9995 L10.9995,0.9995 L10.9995,5.0005 Z M0.9995,2.0005 L0.9995,9.0005 L12.9995,9.0005 L12.9995,12.0005 L6.9995,12.0005 L6.9995,14.0005 L14.9995,14.0005 L14.9995,7.0005 L2.9995,7.0005 L2.9995,4.0005 L8.9995,4.0005 L8.9995,2.0005 L0.9995,2.0005 Z M0.9995,15.0005 L4.9995,15.0005 L4.9995,11.0005 L0.9995,11.0005 L0.9995,15.0005 Z" fill="#7C878E" fill-rule="evenodd" />
</svg>

<?xml version="1.0" encoding="utf-8"?>
<!-- Generator: Adobe Illustrator 23.0.6, SVG Export Plug-In . SVG Version: 6.00 Build 0) -->
<svg version="1.1" id="图层_1" xmlns="http://www.w3.org/2000/svg" xmlns:xlink="http://www.w3.org/1999/xlink" x="0px" y="0px" viewBox="0 0 16 16" style="enable-background:new 0 0 16 16;" xml:space="preserve">
	<style type="text/css">
		.st0{fill-rule:evenodd;clip-rule:evenodd;fill:#006DFF;}
	</style>
	<path class="st0" d="M11,5h4V1h-4V5z M1,2v7h12v3H7v2h8V7H3V4h6V2H1z M1,15h4v-4H1V15z" />
</svg>
